X: 31283
T: Paddy In The Punjab
R: hornpipe
M: 4/4
K: Gminor
f=eee deee|f=eeA d=eee|f=eee d=eee|f=eef aAAA|
f=eef d=eee|f=eeA dAAA|d=eeB dAAB|af=eA dAAA:|
DAAA GAAA|BAAA GAAA|DAdB AAGA|BAAA GAAA|
DAAA GAAA|BAAD GDDD|GABA GDDD|EDGD EDDD:|
G,DDD CDDD|EDDD CDDD|G,DGE DDCD|EDDD CDDD|
G,DDD CDDD|EDDG, CG,G,G,|CDED CG,G,G,|^G,=G,CG, ^G,=G,G,G,:|

